;FLAVOR:UltiGCode
;TIME:16794
;MATERIAL:17243
;MATERIAL2:0
;NOZZLE_DIAMETER:0.4

;Generated with Cura_SteamEngine 2.1.3
;LAYER_COUNT:50
;LAYER:0
M107
G10
G0 F7200.000000 X72.455 Y37.718 Z0.300
;TYPE:SKIRT
G11
G1 F1800.000 X72.873 Y37.047 E0.09487
G1 X73.356 Y36.423 E0.18956
G1 X73.899 Y35.850 E0.28429
G1 X74.498 Y35.335 E0.37908
G1 X75.146 Y34.884 E0.47382
G1 X75.837 Y34.500 E0.56868
G1 X76.562 Y34.188 E0.66340
G1 X77.315 Y33.951 E0.75813
G1 X78.089 Y33.792 E0.85295
G1 X78.874 Y33.711 E0.94765
G1 X79.276 Y33.701 E0.99590
G1 X84.430 Y33.701 E1.61438
G1 X85.219 Y33.741 E1.70918
G1 X85.999 Y33.860 E1.80387
G1 X86.764 Y34.058 E1.89869
G1 X87.141 Y34.198 E1.94695
G1 X87.163 Y34.188 E1.94985
G1 X87.916 Y33.951 E2.04458
G1 X88.690 Y33.792 E2.13940
G1 X89.475 Y33.711 E2.23410
G1 X89.877 Y33.701 E2.28236
G1 X97.377 Y33.701 E3.18236
G1 X98.166 Y33.741 E3.27716
G1 X98.946 Y33.860 E3.37184
G1 X99.711 Y34.058 E3.46667
G1 X99.912 Y34.133 E3.49241
G1 X100.489 Y33.951 E3.56501
G1 X101.263 Y33.792 E3.65983
G1 X102.048 Y33.711 E3.75453
G1 X102.450 Y33.701 E3.80279
G1 X107.604 Y33.701 E4.42127
G1 X108.393 Y33.741 E4.51607
G1 X109.173 Y33.860 E4.61075
G1 X109.938 Y34.058 E4.70558
G1 X110.314 Y34.197 E4.75368
G1 X110.336 Y34.188 E4.75653
G1 X111.089 Y33.951 E4.85126
G1 X111.863 Y33.792 E4.94608
G1 X112.648 Y33.711 E5.04078
G1 X113.050 Y33.701 E5.08904
G1 X120.550 Y33.701 E5.98904
G1 X121.339 Y33.741 E6.08384
G1 X122.119 Y33.860 E6.17852
G1 X122.884 Y34.058 E6.27335
G1 X122.922 Y34.072 E6.27821
G1 X123.306 Y33.951 E6.32652
G1 X124.080 Y33.792 E6.42134
G1 X124.865 Y33.711 E6.51604
G1 X125.267 Y33.701 E6.56430
G1 X130.421 Y33.701 E7.18278
G1 X131.210 Y33.741 E7.27758
G1 X131.990 Y33.860 E7.37226
G1 X132.755 Y34.058 E7.46708
G1 X133.132 Y34.198 E7.51534
G1 X133.154 Y34.188 E7.51824
G1 X133.907 Y33.951 E7.61297
G1 X134.681 Y33.792 E7.70779
G1 X135.466 Y33.711 E7.80249
G1 X135.868 Y33.701 E7.85075
G1 X143.368 Y33.701 E8.75075
G1 X144.157 Y33.741 E8.84555
G1 X144.937 Y33.860 E8.94023
G1 X145.702 Y34.058 E9.03506
G1 X146.442 Y34.332 E9.12975
G1 X147.151 Y34.680 E9.22453
G1 X147.822 Y35.098 E9.31939
G1 X148.446 Y35.581 E9.41408
G1 X149.019 Y36.124 E9.50881
G1 X149.534 Y36.723 E9.60361
G1 X149.985 Y37.371 E9.69835
G1 X150.369 Y38.062 E9.79321
G1 X150.681 Y38.787 E9.88792
G1 X150.918 Y39.540 E9.98265
G1 X151.077 Y40.314 E10.07747
G1 X151.158 Y41.099 E10.17217
G1 X151.168 Y41.501 E10.22043
G1 X151.168 Y181.499 E27.02019
G1 X151.128 Y182.288 E27.11499
G1 X151.009 Y183.068 E27.20967
G1 X150.811 Y183.833 E27.30450
G1 X150.537 Y184.573 E27.39919
G1 X150.189 Y185.282 E27.49397
G1 X149.771 Y185.953 E27.58883
G1 X149.288 Y186.577 E27.68352
G1 X148.745 Y187.150 E27.77825
G1 X148.146 Y187.665 E27.87305
G1 X147.498 Y188.116 E27.96779
G1 X146.807 Y188.500 E28.06265
G1 X146.082 Y188.812 E28.15736
G1 X145.329 Y189.049 E28.25209
G1 X144.555 Y189.208 E28.34691
G1 X143.770 Y189.289 E28.44161
G1 X143.368 Y189.299 E28.48987
G1 X135.868 Y189.299 E29.38987
G1 X135.079 Y189.259 E29.48467
G1 X134.299 Y189.140 E29.57935
G1 X133.534 Y188.942 E29.67418
G1 X133.157 Y188.802 E29.72244
G1 X133.135 Y188.812 E29.72534
G1 X132.382 Y189.049 E29.82007
G1 X131.608 Y189.208 E29.91489
G1 X130.823 Y189.289 E30.00959
G1 X130.421 Y189.299 E30.05784
G1 X125.267 Y189.299 E30.67632
G1 X124.478 Y189.259 E30.77112
G1 X123.698 Y189.140 E30.86581
G1 X122.933 Y188.942 E30.96063
G1 X122.895 Y188.928 E30.96549
G1 X122.511 Y189.049 E31.01380
G1 X121.737 Y189.208 E31.10862
G1 X120.952 Y189.289 E31.20332
G1 X120.550 Y189.299 E31.25158
G1 X113.050 Y189.299 E32.15158
G1 X112.261 Y189.259 E32.24638
G1 X111.481 Y189.140 E32.34106
G1 X110.716 Y188.942 E32.43589
G1 X110.340 Y188.803 E32.48399
G1 X110.318 Y188.812 E32.48684
G1 X109.565 Y189.049 E32.58157
G1 X108.791 Y189.208 E32.67639
G1 X108.006 Y189.289 E32.77109
G1 X107.604 Y189.299 E32.81935
G1 X102.450 Y189.299 E33.43783
G1 X101.661 Y189.259 E33.53263
G1 X100.881 Y189.140 E33.62731
G1 X100.116 Y188.942 E33.72214
G1 X99.915 Y188.867 E33.74788
G1 X99.338 Y189.049 E33.82049
G1 X98.564 Y189.208 E33.91531
G1 X97.779 Y189.289 E34.01001
G1 X97.377 Y189.299 E34.05826
G1 X89.877 Y189.299 E34.95826
G1 X89.088 Y189.259 E35.05306
G1 X88.308 Y189.140 E35.14775
G1 X87.543 Y188.942 E35.24257
G1 X87.166 Y188.802 E35.29083
G1 X87.144 Y188.812 E35.29373
G1 X86.391 Y189.049 E35.38846
G1 X85.617 Y189.208 E35.48328
G1 X84.832 Y189.289 E35.57798
G1 X84.430 Y189.299 E35.62623
G1 X79.276 Y189.299 E36.24471
G1 X78.487 Y189.259 E36.33952
G1 X77.707 Y189.140 E36.43420
G1 X76.942 Y188.942 E36.52902
G1 X76.202 Y188.668 E36.62371
G1 X75.493 Y188.320 E36.71849
G1 X74.822 Y187.902 E36.81336
G1 X74.198 Y187.419 E36.90805
G1 X73.625 Y186.876 E37.00278
G1 X73.110 Y186.277 E37.09757
G1 X72.659 Y185.629 E37.19231
G1 X72.275 Y184.938 E37.28718
G1 X71.963 Y184.213 E37.38189
G1 X71.726 Y183.460 E37.47662
G1 X71.567 Y182.686 E37.57144
G1 X71.486 Y181.901 E37.66614
G1 X71.476 Y181.499 E37.71439
G1 X71.476 Y41.501 E54.51415
G1 X71.516 Y40.712 E54.60896
G1 X71.635 Y39.932 E54.70364
G1 X71.833 Y39.167 E54.79846
G1 X72.107 Y38.427 E54.89316
G1 X72.455 Y37.718 E54.98793
G0 F7200.00000 X72.854 Y37.825
G1 F1800.000 X73.270 Y37.178 E55.08023
G1 X73.751 Y36.578 E55.17251
G1 X74.292 Y36.031 E55.26484
G1 X74.887 Y35.543 E55.35718
G1 X75.529 Y35.120 E55.44944
G1 X76.212 Y34.765 E55.54181
G1 X76.927 Y34.484 E55.63400
G1 X77.669 Y34.278 E55.72640
G1 X78.427 Y34.150 E55.81865
G1 X79.276 Y34.101 E55.92070
G1 X84.430 Y34.101 E56.53918
G1 X85.198 Y34.141 E56.63147
G1 X85.958 Y34.260 E56.72378
G1 X86.701 Y34.458 E56.81605
G1 X87.154 Y34.631 E56.87424
G1 X87.528 Y34.484 E56.92246
G1 X88.270 Y34.278 E57.01487
G1 X89.028 Y34.150 E57.10712
G1 X89.877 Y34.101 E57.20917
G1 X97.377 Y34.101 E58.10917
G1 X98.145 Y34.141 E58.20145
G1 X98.905 Y34.260 E58.29376
G1 X99.648 Y34.458 E58.38603
G1 X99.912 Y34.558 E58.41991
G1 X100.101 Y34.484 E58.44427
G1 X100.843 Y34.278 E58.53667
G1 X101.601 Y34.150 E58.62892
G1 X102.450 Y34.101 E58.73097
G1 X107.604 Y34.101 E59.34945
G1 X108.372 Y34.141 E59.44174
G1 X109.132 Y34.260 E59.53405
G1 X109.875 Y34.458 E59.62632
G1 X110.328 Y34.631 E59.68451
G1 X110.701 Y34.484 E59.73262
G1 X111.443 Y34.278 E59.82503
G1 X112.201 Y34.150 E59.91727
G1 X113.050 Y34.101 E60.01932
G1 X120.550 Y34.101 E60.91932
G1 X121.318 Y34.141 E61.01161
G1 X122.078 Y34.260 E61.10392
G1 X122.821 Y34.458 E61.19619
G1 X122.904 Y34.490 E61.20687
G1 X122.918 Y34.484 E61.20869
G1 X123.660 Y34.278 E61.30110
G1 X124.418 Y34.150 E61.39335
G1 X125.267 Y34.101 E61.49540
G1 X130.421 Y34.101 E62.11388
G1 X131.189 Y34.141 E62.20616
G1 X131.949 Y34.260 E62.29848
G1 X132.692 Y34.458 E62.39075
G1 X133.145 Y34.631 E62.44894
G1 X133.519 Y34.484 E62.49716
G1 X134.261 Y34.278 E62.58957
G1 X135.019 Y34.150 E62.68181
G1 X135.868 Y34.101 E62.78386
G1 X143.368 Y34.101 E63.68386
G1 X144.136 Y34.141 E63.77615
G1 X144.896 Y34.260 E63.86846
G1 X145.639 Y34.458 E63.96073
G1 X146.358 Y34.732 E64.05306
G1 X147.044 Y35.079 E64.14532
G1 X147.691 Y35.495 E64.23762
G1 X148.291 Y35.976 E64.32990
G1 X148.838 Y36.517 E64.42222
G1 X149.326 Y37.112 E64.51456
G1 X149.749 Y37.754 E64.60682
G1 X150.104 Y38.437 E64.69919
G1 X150.385 Y39.152 E64.79138
G1 X150.591 Y39.894 E64.88379
G1 X150.719 Y40.652 E64.97604
G1 X150.768 Y41.501 E65.07809
G1 X150.768 Y181.499 E81.87785
G1 X150.728 Y182.267 E81.97013
G1 X150.609 Y183.027 E82.06244
G1 X150.411 Y183.770 E82.15471
G1 X150.137 Y184.489 E82.24705
G1 X149.790 Y185.175 E82.33930
G1 X149.374 Y185.822 E82.43160
G1 X148.893 Y186.422 E82.52388
G1 X148.352 Y186.969 E82.61620
G1 X147.757 Y187.457 E82.70855
G1 X147.115 Y187.880 E82.80081
G1 X146.432 Y188.235 E82.89318
G1 X145.717 Y188.516 E82.98536
G1 X144.975 Y188.722 E83.07777
G1 X144.217 Y188.850 E83.17002
G1 X143.368 Y188.899 E83.27207
G1 X135.868 Y188.899 E84.17207
G1 X135.100 Y188.859 E84.26435
G1 X134.340 Y188.740 E84.35667
G1 X133.597 Y188.542 E84.44894
G1 X133.144 Y188.369 E84.50713
G1 X132.770 Y188.516 E84.55535
G1 X132.028 Y188.722 E84.64776
G1 X131.270 Y188.850 E84.74000
G1 X130.421 Y188.899 E84.84205
G1 X125.267 Y188.899 E85.46053
G1 X124.499 Y188.859 E85.55282
G1 X123.739 Y188.740 E85.64513
G1 X122.996 Y188.542 E85.73740
G1 X122.913 Y188.510 E85.74808
G1 X122.899 Y188.516 E85.74990
G1 X122.157 Y188.722 E85.84231
G1 X121.399 Y188.850 E85.93456
G1 X120.550 Y188.899 E86.03661
G1 X113.050 Y188.899 E86.93661
G1 X112.282 Y188.859 E87.02889
G1 X111.522 Y188.740 E87.12121
G1 X110.779 Y188.542 E87.21348
G1 X110.326 Y188.369 E87.27167
G1 X109.953 Y188.516 E87.31978
G1 X109.211 Y188.722 E87.41218
G1 X108.453 Y188.850 E87.50443
G1 X107.604 Y188.899 E87.60648
G1 X102.450 Y188.899 E88.22496
G1 X101.682 Y188.859 E88.31725
G1 X100.922 Y188.740 E88.40956
G1 X100.179 Y188.542 E88.50183
G1 X99.915 Y188.442 E88.53571
G1 X99.726 Y188.516 E88.56006
G1 X98.984 Y188.722 E88.65247
G1 X98.226 Y188.850 E88.74472
G1 X97.377 Y188.899 E88.84677
G1 X89.877 Y188.899 E89.74677
G1 X89.109 Y188.859 E89.83905
G1 X88.349 Y188.740 E89.93136
G1 X87.606 Y188.542 E90.02364
G1 X87.153 Y188.369 E90.08182
G1 X86.779 Y188.516 E90.13005
G1 X86.037 Y188.722 E90.22245
G1 X85.279 Y188.850 E90.31470
G1 X84.430 Y188.899 E90.41675
G1 X79.276 Y188.899 E91.03523
G1 X78.508 Y188.859 E91.12752
G1 X77.748 Y188.740 E91.21983
G1 X77.005 Y188.542 E91.31210
G1 X76.286 Y188.268 E91.40443
G1 X75.600 Y187.921 E91.49668
G1 X74.953 Y187.505 E91.58899
G1 X74.353 Y187.024 E91.68127
G1 X73.806 Y186.483 E91.77359
G1 X73.318 Y185.888 E91.86593
G1 X72.895 Y185.246 E91.95819
G1 X72.540 Y184.563 E92.05056
G1 X72.259 Y183.848 E92.14275
G1 X72.053 Y183.106 E92.23516
G1 X71.925 Y182.348 E92.32741
G1 X71.876 Y181.499 E92.42945
G1 X71.876 Y41.501 E109.22921
G1 X71.916 Y40.733 E109.32150
G1 X72.035 Y39.973 E109.41381
G1 X72.233 Y39.230 E109.50608
G1 X72.507 Y38.511 E109.59842
G1 X72.854 Y37.825 E109.69067
G0 F7200.00000 X73.253 Y37.935
G1 F1800.000 X73.668 Y37.312 E109.78050
G1 X74.147 Y36.738 E109.87021
G1 X74.684 Y36.217 E109.95999
G1 X75.274 Y35.758 E110.04970
G1 X75.910 Y35.363 E110.13954
G1 X76.584 Y35.039 E110.22928
G1 X77.289 Y34.789 E110.31904
G1 X78.017 Y34.615 E110.40886
G1 X78.759 Y34.520 E110.49863
G1 X79.276 Y34.501 E110.56071
G1 X84.430 Y34.501 E111.17919
G1 X85.177 Y34.541 E111.26896
G1 X85.915 Y34.660 E111.35866
G1 X86.637 Y34.858 E111.44850
G1 X87.146 Y35.058 E111.51412
G1 X87.185 Y35.039 E111.51933
G1 X87.890 Y34.789 E111.60909
G1 X88.618 Y34.615 E111.69891
G1 X89.360 Y34.520 E111.78868
G1 X89.877 Y34.501 E111.85076
G1 X97.377 Y34.501 E112.75076
G1 X98.124 Y34.541 E112.84053
G1 X98.862 Y34.660 E112.93023
G1 X99.584 Y34.858 E113.02007
G1 X99.909 Y34.985 E113.06194
G1 X100.463 Y34.789 E113.13246
G1 X101.191 Y34.615 E113.22228
G1 X101.933 Y34.520 E113.31205
G1 X102.450 Y34.501 E113.37413
G1 X107.604 Y34.501 E113.99261
G1 X108.351 Y34.541 E114.08238
G1 X109.089 Y34.660 E114.17208
G1 X109.811 Y34.858 E114.26192
G1 X110.320 Y35.057 E114.32751
G1 X110.358 Y35.039 E114.33255
G1 X111.063 Y34.789 E114.42231
G1 X111.791 Y34.615 E114.51213
G1 X112.533 Y34.520 E114.60190
G1 X113.050 Y34.501 E114.66398
G1 X120.550 Y34.501 E115.56398
G1 X121.297 Y34.541 E115.65375
G1 X122.035 Y34.660 E115.74345
G1 X122.757 Y34.858 E115.83329
G1 X122.913 Y34.919 E115.85339
G1 X123.280 Y34.789 E115.90011
G1 X124.008 Y34.615 E115.98994
G1 X124.750 Y34.520 E116.07970
G1 X125.267 Y34.501 E116.14178
G1 X130.421 Y34.501 E116.76026
G1 X131.168 Y34.541 E116.85003
G1 X131.906 Y34.660 E116.93974
G1 X132.628 Y34.858 E117.02958
G1 X133.137 Y35.058 E117.09520
G1 X133.176 Y35.039 E117.10041
G1 X133.881 Y34.789 E117.19017
G1 X134.609 Y34.615 E117.27999
G1 X135.351 Y34.520 E117.36976
G1 X135.868 Y34.501 E117.43184
G1 X143.368 Y34.501 E118.33184
G1 X144.115 Y34.541 E118.42161
G1 X144.853 Y34.660 E118.51131
G1 X145.575 Y34.858 E118.60115
G1 X146.271 Y35.131 E118.69086
G1 X146.934 Y35.478 E118.78066
G1 X147.557 Y35.893 E118.87049
G1 X148.131 Y36.372 E118.96020
G1 X148.652 Y36.909 E119.04999
G1 X149.111 Y37.499 E119.13969
G1 X149.506 Y38.135 E119.22953
G1 X149.830 Y38.809 E119.31927
G1 X150.080 Y39.514 E119.40903
G1 X150.254 Y40.242 E119.49885
G1 X150.349 Y40.984 E119.58862
G1 X150.368 Y41.501 E119.65070
G1 X150.368 Y181.499 E136.45046
G1 X150.328 Y182.246 E136.54023
G1 X150.209 Y182.984 E136.62993
G1 X150.011 Y183.706 E136.71977
G1 X149.738 Y184.402 E136.80949
G1 X149.391 Y185.065 E136.89929
G1 X148.976 Y185.688 E136.98912
G1 X148.497 Y186.262 E137.07883
G1 X147.960 Y186.783 E137.16861
G1 X147.370 Y187.242 E137.25831
G1 X146.734 Y187.637 E137.34816
G1 X146.060 Y187.961 E137.43790
G1 X145.355 Y188.211 E137.52766
G1 X144.627 Y188.385 E137.61748
G1 X143.885 Y188.480 E137.70724
G1 X143.368 Y188.499 E137.76933
G1 X135.868 Y188.499 E138.66933
G1 X135.121 Y188.459 E138.75910
G1 X134.383 Y188.340 E138.84880
G1 X133.661 Y188.142 E138.93864
G1 X133.152 Y187.942 E139.00426
G1 X133.113 Y187.961 E139.00947
G1 X132.408 Y188.211 E139.09923
G1 X131.680 Y188.385 E139.18905
G1 X130.938 Y188.480 E139.27882
G1 X130.421 Y188.499 E139.34090
G1 X125.267 Y188.499 E139.95938
G1 X124.520 Y188.459 E140.04915
G1 X123.782 Y188.340 E140.13885
G1 X123.060 Y188.142 E140.22869
G1 X122.904 Y188.081 E140.24879
G1 X122.537 Y188.211 E140.29551
G1 X121.809 Y188.385 E140.38533
G1 X121.067 Y188.480 E140.47510
G1 X120.550 Y188.499 E140.53718
G1 X113.050 Y188.499 E141.43718
G1 X112.303 Y188.459 E141.52695
G1 X111.565 Y188.340 E141.61666
G1 X110.843 Y188.142 E141.70649
G1 X110.334 Y187.943 E141.77208
G1 X110.296 Y187.961 E141.77712
G1 X109.591 Y188.211 E141.86688
G1 X108.863 Y188.385 E141.95670
G1 X108.121 Y188.480 E142.04647
G1 X107.604 Y188.499 E142.10855
G1 X102.450 Y188.499 E142.72703
G1 X101.703 Y188.459 E142.81680
G1 X100.965 Y188.340 E142.90651
G1 X100.243 Y188.142 E142.99634
G1 X99.918 Y188.015 E143.03822
G1 X99.364 Y188.211 E143.10873
G1 X98.636 Y188.385 E143.19855
G1 X97.894 Y188.480 E143.28832
G1 X97.377 Y188.499 E143.35040
G1 X89.877 Y188.499 E144.25040
G1 X89.130 Y188.459 E144.34017
G1 X88.392 Y188.340 E144.42988
G1 X87.670 Y188.142 E144.51971
G1 X87.161 Y187.942 E144.58534
G1 X87.122 Y187.961 E144.59055
G1 X86.417 Y188.211 E144.68031
G1 X85.689 Y188.385 E144.77013
G1 X84.947 Y188.480 E144.85990
G1 X84.430 Y188.499 E144.92198
G1 X79.276 Y188.499 E145.54046
G1 X78.529 Y188.459 E145.63023
G1 X77.791 Y188.340 E145.71993
G1 X77.069 Y188.142 E145.80977
G1 X76.373 Y187.869 E145.89948
G1 X75.710 Y187.522 E145.98928
G1 X75.087 Y187.107 E146.07911
G1 X74.513 Y186.628 E146.16882
G1 X73.992 Y186.091 E146.25861
G1 X73.533 Y185.501 E146.34831
G1 X73.138 Y184.865 E146.43815
G1 X72.814 Y184.191 E146.52789
G1 X72.564 Y183.486 E146.61765
G1 X72.390 Y182.758 E146.70747
G1 X72.295 Y182.016 E146.79724
G1 X72.276 Y181.499 E146.85932
G1 X72.276 Y41.501 E163.65908
G1 X72.316 Y40.754 E163.74885
G1 X72.435 Y40.016 E163.83855
G1 X72.633 Y39.294 E163.92839
G1 X72.906 Y38.598 E164.01811
G1 X73.253 Y37.935 E164.10791
G0 F7200.00000 X73.651 Y38.048
G1 F1800.000 X74.065 Y37.451 E164.19509
G1 X74.541 Y36.903 E164.28219
G1 X75.075 Y36.410 E164.36940
G1 X75.660 Y35.980 E164.45653
G1 X76.289 Y35.616 E164.54374
G1 X76.954 Y35.323 E164.63094
G1 X77.647 Y35.105 E164.71812
G1 X78.359 Y34.965 E164.80519
G1 X79.276 Y34.901 E164.91550
G1 X84.430 Y34.901 E165.53398
G1 X85.155 Y34.941 E165.62111
G1 X85.872 Y35.060 E165.70833
G1 X86.571 Y35.258 E165.79551
G1 X87.160 Y35.497 E165.87179
G1 X87.555 Y35.323 E165.92358
G1 X88.248 Y35.105 E166.01076
G1 X88.960 Y34.965 E166.09783
G1 X89.877 Y34.901 E166.20814
G1 X97.377 Y34.901 E167.10814
G1 X98.102 Y34.941 E167.19527
G1 X98.819 Y35.060 E167.28249
G1 X99.518 Y35.258 E167.36967
G1 X99.912 Y35.418 E167.42070
G1 X100.128 Y35.323 E167.44902
G1 X100.821 Y35.105 E167.53620
G1 X101.533 Y34.965 E167.62327
G1 X102.450 Y34.901 E167.73358
G1 X107.604 Y34.901 E168.35206
G1 X108.329 Y34.941 E168.43919
G1 X109.046 Y35.060 E168.52641
G1 X109.745 Y35.258 E168.61359
G1 X110.334 Y35.497 E168.68987
G1 X110.728 Y35.323 E168.74155
G1 X111.421 Y35.105 E168.82873
G1 X112.133 Y34.965 E168.91580
G1 X113.050 Y34.901 E169.02611
G1 X120.550 Y34.901 E169.92611
G1 X121.275 Y34.941 E170.01324
