;FLAVOR:UltiGCode
;TIME:27671
;MATERIAL:29687
;MATERIAL2:0
;NOZZLE_DIAMETER:0.4

;Generated with Cura_SteamEngine 2.1.3
;LAYER_COUNT:75
;LAYER:0
M107
G10
G0 F7200.000000 X59.140 Y37.047 Z0.300
;TYPE:SKIRT
G11
G1 F1800.000 X59.623 Y36.423 E0.09469
G1 X60.166 Y35.850 E0.18942
G1 X60.765 Y35.335 E0.28422
G1 X61.413 Y34.884 E0.37895
G1 X62.104 Y34.500 E0.47382
G1 X62.829 Y34.188 E0.56853
G1 X63.582 Y33.951 E0.66326
G1 X64.356 Y33.792 E0.75808
G1 X65.141 Y33.711 E0.85278
G1 X65.543 Y33.701 E0.90104
G1 X73.274 Y33.701 E1.82876
G1 X74.063 Y33.741 E1.92356
G1 X74.843 Y33.860 E2.01824
G1 X75.608 Y34.058 E2.11307
G1 X76.348 Y34.332 E2.20776
G1 X77.057 Y34.680 E2.30253
G1 X77.352 Y34.864 E2.34426
G1 X78.006 Y34.500 E2.43407
G1 X78.731 Y34.188 E2.52879
G1 X79.484 Y33.951 E2.62352
G1 X80.258 Y33.792 E2.71834
G1 X81.043 Y33.711 E2.81304
G1 X81.445 Y33.701 E2.86129
G1 X92.695 Y33.701 E4.21129
G1 X93.484 Y33.741 E4.30609
G1 X94.264 Y33.860 E4.40078
G1 X95.029 Y34.058 E4.49560
G1 X95.302 Y34.159 E4.53053
G1 X95.964 Y33.951 E4.61380
G1 X96.738 Y33.792 E4.70862
G1 X97.523 Y33.711 E4.80332
G1 X97.925 Y33.701 E4.85157
G1 X105.655 Y33.701 E5.77917
G1 X106.444 Y33.741 E5.87398
G1 X107.224 Y33.860 E5.96866
G1 X107.989 Y34.058 E6.06348
G1 X108.729 Y34.332 E6.15818
G1 X109.438 Y34.680 E6.25295
G1 X109.732 Y34.863 E6.29451
G1 X110.386 Y34.500 E6.38427
G1 X111.111 Y34.188 E6.47898
G1 X111.864 Y33.951 E6.57371
G1 X112.638 Y33.792 E6.66853
G1 X113.423 Y33.711 E6.76323
G1 X113.825 Y33.701 E6.81149
G1 X125.075 Y33.701 E8.16149
G1 X125.864 Y33.741 E8.25629
G1 X126.644 Y33.860 E8.35097
G1 X127.409 Y34.058 E8.44580
G1 X128.149 Y34.332 E8.54049
G1 X128.151 Y34.333 E8.54076
G1 X128.488 Y34.188 E8.58478
G1 X129.241 Y33.951 E8.67951
G1 X130.015 Y33.792 E8.77433
G1 X130.800 Y33.711 E8.86903
G1 X131.202 Y33.701 E8.91728
G1 X138.933 Y33.701 E9.84500
G1 X139.722 Y33.741 E9.93981
G1 X140.502 Y33.860 E10.03449
G1 X141.267 Y34.058 E10.12931
G1 X142.007 Y34.332 E10.22401
G1 X142.716 Y34.680 E10.31878
G1 X143.011 Y34.864 E10.36050
G1 X143.665 Y34.500 E10.45032
G1 X144.390 Y34.188 E10.54503
G1 X145.143 Y33.951 E10.63976
G1 X145.917 Y33.792 E10.73458
G1 X146.702 Y33.711 E10.82928
G1 X147.104 Y33.701 E10.87754
G1 X158.354 Y33.701 E12.22754
G1 X159.143 Y33.741 E12.32234
G1 X159.923 Y33.860 E12.41702
G1 X160.688 Y34.058 E12.51185
G1 X161.428 Y34.332 E12.60654
G1 X162.137 Y34.680 E12.70132
G1 X162.808 Y35.098 E12.79618
G1 X163.432 Y35.581 E12.89087
G1 X164.005 Y36.124 E12.98560
G1 X164.520 Y36.723 E13.08040
G1 X164.971 Y37.371 E13.17514
G1 X165.355 Y38.062 E13.27000
G1 X165.667 Y38.787 E13.36471
G1 X165.904 Y39.540 E13.45944
G1 X166.063 Y40.314 E13.55426
G1 X166.144 Y41.099 E13.64896
G1 X166.154 Y41.501 E13.69722
G1 X166.154 Y181.499 E30.49698
G1 X166.114 Y182.288 E30.59178
G1 X165.995 Y183.068 E30.68646
G1 X165.797 Y183.833 E30.78129
G1 X165.523 Y184.573 E30.87598
G1 X165.175 Y185.282 E30.97076
G1 X164.757 Y185.953 E31.06562
G1 X164.274 Y186.577 E31.16031
G1 X163.731 Y187.150 E31.25504
G1 X163.132 Y187.665 E31.34984
G1 X162.484 Y188.116 E31.44458
G1 X161.793 Y188.500 E31.53944
G1 X161.068 Y188.812 E31.63415
G1 X160.315 Y189.049 E31.72888
G1 X159.541 Y189.208 E31.82370
G1 X158.756 Y189.289 E31.91840
G1 X158.354 Y189.299 E31.96666
G1 X147.104 Y189.299 E33.31666
G1 X146.315 Y189.259 E33.41146
G1 X145.535 Y189.140 E33.50614
G1 X144.770 Y188.942 E33.60097
G1 X144.030 Y188.668 E33.69566
G1 X143.321 Y188.320 E33.79044
G1 X143.026 Y188.136 E33.83216
G1 X142.372 Y188.500 E33.92197
G1 X141.647 Y188.812 E34.01669
G1 X140.894 Y189.049 E34.11142
G1 X140.120 Y189.208 E34.20624
G1 X139.335 Y189.289 E34.30094
G1 X138.933 Y189.299 E34.34919
G1 X131.202 Y189.299 E35.27691
G1 X130.413 Y189.259 E35.37171
G1 X129.633 Y189.140 E35.46640
G1 X128.868 Y188.942 E35.56122
G1 X128.128 Y188.668 E35.65591
G1 X128.126 Y188.667 E35.65618
G1 X127.789 Y188.812 E35.70021
G1 X127.036 Y189.049 E35.79494
G1 X126.262 Y189.208 E35.88976
G1 X125.477 Y189.289 E35.98446
G1 X125.075 Y189.299 E36.03271
G1 X113.825 Y189.299 E37.38271
G1 X113.036 Y189.259 E37.47751
G1 X112.256 Y189.140 E37.57220
G1 X111.491 Y188.942 E37.66702
G1 X110.751 Y188.668 E37.76171
G1 X110.042 Y188.320 E37.85649
G1 X109.748 Y188.137 E37.89805
G1 X109.094 Y188.500 E37.98780
G1 X108.369 Y188.812 E38.08252
G1 X107.616 Y189.049 E38.17725
G1 X106.842 Y189.208 E38.27207
G1 X106.057 Y189.289 E38.36677
G1 X105.655 Y189.299 E38.41502
G1 X97.925 Y189.299 E39.34262
G1 X97.136 Y189.259 E39.43742
G1 X96.356 Y189.140 E39.53211
G1 X95.591 Y188.942 E39.62693
G1 X95.318 Y188.841 E39.66186
G1 X94.656 Y189.049 E39.74513
G1 X93.882 Y189.208 E39.83995
G1 X93.097 Y189.289 E39.93465
G1 X92.695 Y189.299 E39.98291
G1 X81.445 Y189.299 E41.33291
G1 X80.656 Y189.259 E41.42771
G1 X79.876 Y189.140 E41.52239
G1 X79.111 Y188.942 E41.61722
G1 X78.371 Y188.668 E41.71191
G1 X77.662 Y188.320 E41.80668
G1 X77.367 Y188.136 E41.84841
G1 X76.713 Y188.500 E41.93822
G1 X75.988 Y188.812 E42.03294
G1 X75.235 Y189.049 E42.12767
G1 X74.461 Y189.208 E42.22249
G1 X73.676 Y189.289 E42.31719
G1 X73.274 Y189.299 E42.36544
G1 X65.543 Y189.299 E43.29316
G1 X64.754 Y189.259 E43.38796
G1 X63.974 Y189.140 E43.48265
G1 X63.209 Y188.942 E43.57747
G1 X62.469 Y188.668 E43.67216
G1 X61.760 Y188.320 E43.76694
G1 X61.089 Y187.902 E43.86180
G1 X60.465 Y187.419 E43.95649
G1 X59.892 Y186.876 E44.05122
G1 X59.377 Y186.277 E44.14602
G1 X58.926 Y185.629 E44.24076
G1 X58.542 Y184.938 E44.33562
G1 X58.230 Y184.213 E44.43034
G1 X57.993 Y183.460 E44.52507
G1 X57.834 Y182.686 E44.61989
G1 X57.753 Y181.901 E44.71459
G1 X57.743 Y181.499 E44.76284
G1 X57.743 Y41.501 E61.56260
G1 X57.783 Y40.712 E61.65740
G1 X57.902 Y39.932 E61.75209
G1 X58.100 Y39.167 E61.84691
G1 X58.374 Y38.427 E61.94160
G1 X58.722 Y37.718 E62.03638
G1 X59.140 Y37.047 E62.13124
G0 F7200.00000 X59.537 Y37.178
G1 F1800.000 X60.018 Y36.578 E62.22352
G1 X60.559 Y36.031 E62.31585
G1 X61.154 Y35.543 E62.40819
G1 X61.796 Y35.120 E62.50045
G1 X62.479 Y34.765 E62.59282
G1 X63.194 Y34.484 E62.68501
G1 X63.936 Y34.278 E62.77741
G1 X64.694 Y34.150 E62.86966
G1 X65.543 Y34.101 E62.97171
G1 X73.274 Y34.101 E63.89943
G1 X74.042 Y34.141 E63.99172
G1 X74.802 Y34.260 E64.08403
G1 X75.545 Y34.458 E64.17630
G1 X76.264 Y34.732 E64.26863
G1 X76.950 Y35.079 E64.36088
G1 X77.360 Y35.343 E64.41940
G1 X77.698 Y35.120 E64.46799
G1 X78.381 Y34.765 E64.56036
G1 X79.096 Y34.484 E64.65255
G1 X79.838 Y34.278 E64.74496
G1 X80.596 Y34.150 E64.83721
G1 X81.445 Y34.101 E64.93926
G1 X92.695 Y34.101 E66.28926
G1 X93.463 Y34.141 E66.38154
G1 X94.223 Y34.260 E66.47385
G1 X94.966 Y34.458 E66.56612
G1 X95.309 Y34.589 E66.61018
G1 X95.576 Y34.484 E66.64461
G1 X96.318 Y34.278 E66.73702
G1 X97.076 Y34.150 E66.82927
G1 X97.925 Y34.101 E66.93132
G1 X105.655 Y34.101 E67.85892
G1 X106.423 Y34.141 E67.95120
G1 X107.183 Y34.260 E68.04351
G1 X107.926 Y34.458 E68.13578
G1 X108.645 Y34.732 E68.22812
G1 X109.331 Y35.079 E68.32037
G1 X109.741 Y35.342 E68.37882
G1 X110.078 Y35.120 E68.42725
G1 X110.761 Y34.765 E68.51962
G1 X111.476 Y34.484 E68.61181
G1 X112.218 Y34.278 E68.70421
G1 X112.976 Y34.150 E68.79646
G1 X113.825 Y34.101 E68.89851
G1 X125.075 Y34.101 E70.24851
G1 X125.843 Y34.141 E70.34080
G1 X126.603 Y34.260 E70.43311
G1 X127.346 Y34.458 E70.52538
G1 X128.065 Y34.732 E70.61771
G1 X128.134 Y34.767 E70.62700
G1 X128.138 Y34.765 E70.62753
G1 X128.853 Y34.484 E70.71972
G1 X129.595 Y34.278 E70.81213
G1 X130.353 Y34.150 E70.90438
G1 X131.202 Y34.101 E71.00643
G1 X138.933 Y34.101 E71.93415
G1 X139.701 Y34.141 E72.02643
G1 X140.461 Y34.260 E72.11874
G1 X141.204 Y34.458 E72.21101
G1 X141.923 Y34.732 E72.30335
G1 X142.609 Y35.079 E72.39560
G1 X143.019 Y35.343 E72.45412
G1 X143.357 Y35.120 E72.50271
G1 X144.040 Y34.765 E72.59508
G1 X144.755 Y34.484 E72.68727
G1 X145.497 Y34.278 E72.77967
G1 X146.255 Y34.150 E72.87192
G1 X147.104 Y34.101 E72.97397
G1 X158.354 Y34.101 E74.32397
G1 X159.122 Y34.141 E74.41626
G1 X159.882 Y34.260 E74.50857
G1 X160.625 Y34.458 E74.60084
G1 X161.344 Y34.732 E74.69317
G1 X162.030 Y35.079 E74.78542
G1 X162.677 Y35.495 E74.87773
G1 X163.277 Y35.976 E74.97001
G1 X163.824 Y36.517 E75.06233
G1 X164.312 Y37.112 E75.15467
G1 X164.735 Y37.754 E75.24693
G1 X165.090 Y38.437 E75.33930
G1 X165.371 Y39.152 E75.43149
G1 X165.577 Y39.894 E75.52390
G1 X165.705 Y40.652 E75.61615
G1 X165.754 Y41.501 E75.71819
G1 X165.754 Y181.499 E92.51795
G1 X165.714 Y182.267 E92.61024
G1 X165.595 Y183.027 E92.70255
G1 X165.397 Y183.770 E92.79482
G1 X165.123 Y184.489 E92.88715
G1 X164.776 Y185.175 E92.97941
G1 X164.360 Y185.822 E93.07171
G1 X163.879 Y186.422 E93.16399
G1 X163.338 Y186.969 E93.25631
G1 X162.743 Y187.457 E93.34866
G1 X162.101 Y187.880 E93.44091
G1 X161.418 Y188.235 E93.53328
G1 X160.703 Y188.516 E93.62547
G1 X159.961 Y188.722 E93.71788
G1 X159.203 Y188.850 E93.81013
G1 X158.354 Y188.899 E93.91218
G1 X147.104 Y188.899 E95.26218
G1 X146.336 Y188.859 E95.35446
G1 X145.576 Y188.740 E95.44677
G1 X144.833 Y188.542 E95.53905
G1 X144.114 Y188.268 E95.63138
G1 X143.428 Y187.921 E95.72363
G1 X143.018 Y187.657 E95.78215
G1 X142.680 Y187.880 E95.83074
G1 X141.997 Y188.235 E95.92311
G1 X141.282 Y188.516 E96.01530
G1 X140.540 Y188.722 E96.10771
G1 X139.782 Y188.850 E96.19995
G1 X138.933 Y188.899 E96.30200
G1 X131.202 Y188.899 E97.22972
G1 X130.434 Y188.859 E97.32201
G1 X129.674 Y188.740 E97.41432
G1 X128.931 Y188.542 E97.50659
G1 X128.212 Y188.268 E97.59892
G1 X128.143 Y188.233 E97.60821
G1 X128.139 Y188.235 E97.60874
G1 X127.424 Y188.516 E97.70093
G1 X126.682 Y188.722 E97.79334
G1 X125.924 Y188.850 E97.88559
G1 X125.075 Y188.899 E97.98764
G1 X113.825 Y188.899 E99.33764
G1 X113.057 Y188.859 E99.42992
G1 X112.297 Y188.740 E99.52223
G1 X111.554 Y188.542 E99.61451
G1 X110.835 Y188.268 E99.70684
G1 X110.149 Y187.921 E99.79909
G1 X109.739 Y187.658 E99.85754
G1 X109.402 Y187.880 E99.90597
G1 X108.719 Y188.235 E99.99834
G1 X108.004 Y188.516 E100.09053
G1 X107.262 Y188.722 E100.18293
G1 X106.504 Y188.850 E100.27518
G1 X105.655 Y188.899 E100.37723
G1 X97.925 Y188.899 E101.30483
G1 X97.157 Y188.859 E101.39712
G1 X96.397 Y188.740 E101.48943
G1 X95.654 Y188.542 E101.58170
G1 X95.311 Y188.411 E101.62576
G1 X95.044 Y188.516 E101.66019
G1 X94.302 Y188.722 E101.75260
G1 X93.544 Y188.850 E101.84484
G1 X92.695 Y188.899 E101.94689
G1 X81.445 Y188.899 E103.29689
G1 X80.677 Y188.859 E103.38918
G1 X79.917 Y188.740 E103.48149
G1 X79.174 Y188.542 E103.57376
G1 X78.455 Y188.268 E103.66609
G1 X77.769 Y187.921 E103.75835
G1 X77.359 Y187.657 E103.81686
G1 X77.021 Y187.880 E103.86546
G1 X76.338 Y188.235 E103.95783
G1 X75.623 Y188.516 E104.05001
G1 X74.881 Y188.722 E104.14242
G1 X74.123 Y188.850 E104.23467
G1 X73.274 Y188.899 E104.33672
G1 X65.543 Y188.899 E105.26444
G1 X64.775 Y188.859 E105.35672
G1 X64.015 Y188.740 E105.44903
G1 X63.272 Y188.542 E105.54131
G1 X62.553 Y188.268 E105.63364
G1 X61.867 Y187.921 E105.72589
G1 X61.220 Y187.505 E105.81819
G1 X60.620 Y187.024 E105.91047
G1 X60.073 Y186.483 E106.00280
G1 X59.585 Y185.888 E106.09514
G1 X59.162 Y185.246 E106.18740
G1 X58.807 Y184.563 E106.27977
G1 X58.526 Y183.848 E106.37196
G1 X58.320 Y183.106 E106.46436
G1 X58.192 Y182.348 E106.55661
G1 X58.143 Y181.499 E106.65866
G1 X58.143 Y41.501 E123.45842
G1 X58.183 Y40.733 E123.55071
G1 X58.302 Y39.973 E123.64302
G1 X58.500 Y39.230 E123.73529
G1 X58.774 Y38.511 E123.82762
G1 X59.121 Y37.825 E123.91987
G1 X59.537 Y37.178 E124.01218
G0 F7200.00000 X59.935 Y37.312
G1 F1800.000 X60.414 Y36.738 E124.10189
G1 X60.951 Y36.217 E124.19168
G1 X61.541 Y35.758 E124.28138
G1 X62.177 Y35.363 E124.37122
G1 X62.851 Y35.039 E124.46096
G1 X63.556 Y34.789 E124.55072
G1 X64.284 Y34.615 E124.64054
G1 X65.026 Y34.520 E124.73031
G1 X65.543 Y34.501 E124.79239
G1 X73.274 Y34.501 E125.72011
G1 X74.021 Y34.541 E125.80988
G1 X74.759 Y34.660 E125.89958
G1 X75.481 Y34.858 E125.98942
G1 X76.177 Y35.131 E126.07914
G1 X76.840 Y35.478 E126.16893
G1 X77.359 Y35.824 E126.24379
G1 X77.443 Y35.758 E126.25660
G1 X78.079 Y35.363 E126.34645
G1 X78.753 Y35.039 E126.43619
G1 X79.458 Y34.789 E126.52595
G1 X80.186 Y34.615 E126.61577
G1 X80.928 Y34.520 E126.70554
G1 X81.445 Y34.501 E126.76762
G1 X92.695 Y34.501 E128.11762
G1 X93.442 Y34.541 E128.20739
G1 X94.180 Y34.660 E128.29709
G1 X94.902 Y34.858 E128.38693
G1 X95.302 Y35.015 E128.43849
G1 X95.938 Y34.789 E128.51949
G1 X96.666 Y34.615 E128.60931
G1 X97.408 Y34.520 E128.69908
G1 X97.925 Y34.501 E128.76116
G1 X105.655 Y34.501 E129.68876
G1 X106.402 Y34.541 E129.77853
G1 X107.140 Y34.660 E129.86823
G1 X107.862 Y34.858 E129.95807
G1 X108.558 Y35.131 E130.04778
G1 X109.221 Y35.478 E130.13758
G1 X109.739 Y35.823 E130.21227
G1 X109.823 Y35.758 E130.22501
G1 X110.459 Y35.363 E130.31485
G1 X111.133 Y35.039 E130.40459
G1 X111.838 Y34.789 E130.49436
G1 X112.566 Y34.615 E130.58418
G1 X113.308 Y34.520 E130.67394
G1 X113.825 Y34.501 E130.73602
G1 X125.075 Y34.501 E132.08602
G1 X125.822 Y34.541 E132.17579
G1 X126.560 Y34.660 E132.26550
G1 X127.282 Y34.858 E132.35534
G1 X127.978 Y35.131 E132.44505
G1 X128.141 Y35.216 E132.46711
G1 X128.510 Y35.039 E132.51622
G1 X129.215 Y34.789 E132.60598
G1 X129.943 Y34.615 E132.69580
G1 X130.685 Y34.520 E132.78557
G1 X131.202 Y34.501 E132.84765
G1 X138.933 Y34.501 E133.77537
G1 X139.680 Y34.541 E133.86514
G1 X140.418 Y34.660 E133.95484
G1 X141.140 Y34.858 E134.04468
G1 X141.836 Y35.131 E134.13440
G1 X142.499 Y35.478 E134.22420
G1 X143.018 Y35.824 E134.29905
G1 X143.102 Y35.758 E134.31187
G1 X143.738 Y35.363 E134.40171
G1 X144.412 Y35.039 E134.49145
G1 X145.117 Y34.789 E134.58121
G1 X145.845 Y34.615 E134.67103
G1 X146.587 Y34.520 E134.76080
G1 X147.104 Y34.501 E134.82288
G1 X158.354 Y34.501 E136.17288
G1 X159.101 Y34.541 E136.26265
G1 X159.839 Y34.660 E136.35235
G1 X160.561 Y34.858 E136.44219
G1 X161.257 Y35.131 E136.53191
G1 X161.920 Y35.478 E136.62170
G1 X162.543 Y35.893 E136.71153
G1 X163.117 Y36.372 E136.80125
G1 X163.638 Y36.909 E136.89103
G1 X164.097 Y37.499 E136.98073
G1 X164.492 Y38.135 E137.07057
G1 X164.816 Y38.809 E137.16031
G1 X165.066 Y39.514 E137.25007
G1 X165.240 Y40.242 E137.33990
G1 X165.335 Y40.984 E137.42966
G1 X165.354 Y41.501 E137.49174
G1 X165.354 Y181.499 E154.29150
G1 X165.314 Y182.246 E154.38127
G1 X165.195 Y182.984 E154.47098
G1 X164.997 Y183.706 E154.56082
G1 X164.724 Y184.402 E154.65053
G1 X164.377 Y185.065 E154.74033
G1 X163.962 Y185.688 E154.83016
G1 X163.483 Y186.262 E154.91987
G1 X162.946 Y186.783 E155.00965
G1 X162.356 Y187.242 E155.09936
G1 X161.720 Y187.637 E155.18920
G1 X161.046 Y187.961 E155.27894
G1 X160.341 Y188.211 E155.36870
G1 X159.613 Y188.385 E155.45852
G1 X158.871 Y188.480 E155.54829
G1 X158.354 Y188.499 E155.61037
G1 X147.104 Y188.499 E156.96037
G1 X146.357 Y188.459 E157.05014
G1 X145.619 Y188.340 E157.13984
G1 X144.897 Y188.142 E157.22968
G1 X144.201 Y187.869 E157.31939
G1 X143.538 Y187.522 E157.40919
G1 X143.019 Y187.176 E157.48404
G1 X142.935 Y187.242 E157.49686
G1 X142.299 Y187.637 E157.58670
G1 X141.625 Y187.961 E157.67644
G1 X140.920 Y188.211 E157.76621
G1 X140.192 Y188.385 E157.85603
G1 X139.450 Y188.480 E157.94579
G1 X138.933 Y188.499 E158.00788
G1 X131.202 Y188.499 E158.93560
G1 X130.455 Y188.459 E159.02536
G1 X129.717 Y188.340 E159.11507
G1 X128.995 Y188.142 E159.20491
G1 X128.299 Y187.869 E159.29462
G1 X128.136 Y187.784 E159.31668
G1 X127.767 Y187.961 E159.36579
G1 X127.062 Y188.211 E159.45555
G1 X126.334 Y188.385 E159.54537
G1 X125.592 Y188.480 E159.63514
G1 X125.075 Y188.499 E159.69722
G1 X113.825 Y188.499 E161.04722
G1 X113.078 Y188.459 E161.13699
G1 X112.340 Y188.340 E161.22670
G1 X111.618 Y188.142 E161.31653
G1 X110.922 Y187.869 E161.40625
G1 X110.259 Y187.522 E161.49605
G1 X109.741 Y187.177 E161.57073
G1 X109.657 Y187.242 E161.58348
G1 X109.021 Y187.637 E161.67332
G1 X108.347 Y187.961 E161.76306
G1 X107.642 Y188.211 E161.85282
G1 X106.914 Y188.385 E161.94264
G1 X106.172 Y188.480 E162.03241
G1 X105.655 Y188.499 E162.09449
G1 X97.925 Y188.499 E163.02209
G1 X97.178 Y188.459 E163.11186
G1 X96.440 Y188.340 E163.20156
G1 X95.718 Y188.142 E163.29140
G1 X95.318 Y187.985 E163.34297
G1 X94.682 Y188.211 E163.42396
