;FLAVOR:UltiGCode
;TIME:25234
;MATERIAL:18029
;MATERIAL2:0
;NOZZLE_DIAMETER:0.4

;Generated with Cura_SteamEngine 2.1.3
;LAYER_COUNT:75
;LAYER:0
M107
G10
G0 F7200.000000 X90.756 Y38.427 Z0.300
;TYPE:SKIRT
G11
G1 F1800.000 X91.104 Y37.718 E0.09478
G1 X91.522 Y37.047 E0.18964
G1 X92.005 Y36.423 E0.28433
G1 X92.548 Y35.850 E0.37906
G1 X93.147 Y35.335 E0.47386
G1 X93.795 Y34.884 E0.56860
G1 X94.486 Y34.500 E0.66346
G1 X95.211 Y34.188 E0.75817
G1 X95.964 Y33.951 E0.85290
G1 X96.738 Y33.792 E0.94772
G1 X97.523 Y33.711 E1.04242
G1 X97.925 Y33.701 E1.09068
G1 X105.655 Y33.701 E2.01828
G1 X106.444 Y33.741 E2.11308
G1 X107.224 Y33.860 E2.20776
G1 X107.989 Y34.058 E2.30259
G1 X108.729 Y34.332 E2.39728
G1 X109.438 Y34.680 E2.49206
G1 X109.732 Y34.863 E2.53361
G1 X110.386 Y34.500 E2.62337
G1 X111.111 Y34.188 E2.71809
G1 X111.864 Y33.951 E2.81281
G1 X112.638 Y33.792 E2.90763
G1 X113.423 Y33.711 E3.00233
G1 X113.825 Y33.701 E3.05059
G1 X125.075 Y33.701 E4.40059
G1 X125.864 Y33.741 E4.49539
G1 X126.644 Y33.860 E4.59007
G1 X127.409 Y34.058 E4.68490
G1 X128.149 Y34.332 E4.77959
G1 X128.858 Y34.680 E4.87437
G1 X129.529 Y35.098 E4.96923
G1 X130.153 Y35.581 E5.06392
G1 X130.726 Y36.124 E5.15865
G1 X131.241 Y36.723 E5.25345
G1 X131.692 Y37.371 E5.34819
G1 X132.076 Y38.062 E5.44305
G1 X132.388 Y38.787 E5.53777
G1 X132.625 Y39.540 E5.63250
G1 X132.784 Y40.314 E5.72731
G1 X132.865 Y41.099 E5.82201
G1 X132.875 Y41.501 E5.87027
G1 X132.875 Y181.499 E22.67003
G1 X132.835 Y182.288 E22.76483
G1 X132.716 Y183.068 E22.85951
G1 X132.518 Y183.833 E22.95434
G1 X132.244 Y184.573 E23.04903
G1 X131.896 Y185.282 E23.14381
G1 X131.478 Y185.953 E23.23867
G1 X130.995 Y186.577 E23.33336
G1 X130.452 Y187.150 E23.42809
G1 X129.853 Y187.665 E23.52289
G1 X129.205 Y188.116 E23.61763
G1 X128.514 Y188.500 E23.71249
G1 X127.789 Y188.812 E23.80721
G1 X127.036 Y189.049 E23.90194
G1 X126.262 Y189.208 E23.99675
G1 X125.477 Y189.289 E24.09146
G1 X125.075 Y189.299 E24.13971
G1 X113.825 Y189.299 E25.48971
G1 X113.036 Y189.259 E25.58451
G1 X112.256 Y189.140 E25.67919
G1 X111.491 Y188.942 E25.77402
G1 X110.751 Y188.668 E25.86871
G1 X110.042 Y188.320 E25.96349
G1 X109.748 Y188.137 E26.00504
G1 X109.094 Y188.500 E26.09480
G1 X108.369 Y188.812 E26.18952
G1 X107.616 Y189.049 E26.28425
G1 X106.842 Y189.208 E26.37907
G1 X106.057 Y189.289 E26.47377
G1 X105.655 Y189.299 E26.52202
G1 X97.925 Y189.299 E27.44962
G1 X97.136 Y189.259 E27.54442
G1 X96.356 Y189.140 E27.63911
G1 X95.591 Y188.942 E27.73393
G1 X94.851 Y188.668 E27.82862
G1 X94.142 Y188.320 E27.92340
G1 X93.471 Y187.902 E28.01826
G1 X92.847 Y187.419 E28.11295
G1 X92.274 Y186.876 E28.20768
G1 X91.759 Y186.277 E28.30248
G1 X91.308 Y185.629 E28.39722
G1 X90.924 Y184.938 E28.49208
G1 X90.612 Y184.213 E28.58680
G1 X90.375 Y183.460 E28.68153
G1 X90.216 Y182.686 E28.77635
G1 X90.135 Y181.901 E28.87105
G1 X90.125 Y181.499 E28.91930
G1 X90.125 Y41.501 E45.71906
G1 X90.165 Y40.712 E45.81386
G1 X90.284 Y39.932 E45.90855
G1 X90.482 Y39.167 E46.00337
G1 X90.756 Y38.427 E46.09806
G0 F7200.00000 X91.156 Y38.511
G1 F1800.000 X91.503 Y37.825 E46.19031
G1 X91.919 Y37.178 E46.28262
G1 X92.400 Y36.578 E46.37490
G1 X92.941 Y36.031 E46.46722
G1 X93.536 Y35.543 E46.55956
G1 X94.178 Y35.120 E46.65182
G1 X94.861 Y34.765 E46.74419
G1 X95.576 Y34.484 E46.83638
G1 X96.318 Y34.278 E46.92879
G1 X97.076 Y34.150 E47.02104
G1 X97.925 Y34.101 E47.12308
G1 X105.655 Y34.101 E48.05068
G1 X106.423 Y34.141 E48.14297
G1 X107.183 Y34.260 E48.23528
G1 X107.926 Y34.458 E48.32755
G1 X108.645 Y34.732 E48.41989
G1 X109.331 Y35.079 E48.51214
G1 X109.741 Y35.342 E48.57059
G1 X110.078 Y35.120 E48.61902
G1 X110.761 Y34.765 E48.71139
G1 X111.476 Y34.484 E48.80357
G1 X112.218 Y34.278 E48.89598
G1 X112.976 Y34.150 E48.98823
G1 X113.825 Y34.101 E49.09028
G1 X125.075 Y34.101 E50.44028
G1 X125.843 Y34.141 E50.53256
G1 X126.603 Y34.260 E50.62488
G1 X127.346 Y34.458 E50.71715
G1 X128.065 Y34.732 E50.80948
G1 X128.751 Y35.079 E50.90173
G1 X129.398 Y35.495 E50.99404
G1 X129.998 Y35.976 E51.08632
G1 X130.545 Y36.517 E51.17864
G1 X131.033 Y37.112 E51.27098
G1 X131.456 Y37.754 E51.36324
G1 X131.811 Y38.437 E51.45561
G1 X132.092 Y39.152 E51.54780
G1 X132.298 Y39.894 E51.64020
G1 X132.426 Y40.652 E51.73245
G1 X132.475 Y41.501 E51.83450
G1 X132.475 Y181.499 E68.63426
G1 X132.435 Y182.267 E68.72655
G1 X132.316 Y183.027 E68.81886
G1 X132.118 Y183.770 E68.91113
G1 X131.844 Y184.489 E69.00346
G1 X131.497 Y185.175 E69.09571
G1 X131.081 Y185.822 E69.18802
G1 X130.600 Y186.422 E69.28030
G1 X130.059 Y186.969 E69.37262
G1 X129.464 Y187.457 E69.46496
G1 X128.822 Y187.880 E69.55722
G1 X128.139 Y188.235 E69.64959
G1 X127.424 Y188.516 E69.74178
G1 X126.682 Y188.722 E69.83419
G1 X125.924 Y188.850 E69.92644
G1 X125.075 Y188.899 E70.02849
G1 X113.825 Y188.899 E71.37849
G1 X113.057 Y188.859 E71.47077
G1 X112.297 Y188.740 E71.56308
G1 X111.554 Y188.542 E71.65535
G1 X110.835 Y188.268 E71.74769
G1 X110.149 Y187.921 E71.83994
G1 X109.739 Y187.658 E71.89839
G1 X109.402 Y187.880 E71.94682
G1 X108.719 Y188.235 E72.03919
G1 X108.004 Y188.516 E72.13137
G1 X107.262 Y188.722 E72.22378
G1 X106.504 Y188.850 E72.31603
G1 X105.655 Y188.899 E72.41808
G1 X97.925 Y188.899 E73.34568
G1 X97.157 Y188.859 E73.43796
G1 X96.397 Y188.740 E73.53028
G1 X95.654 Y188.542 E73.62255
G1 X94.935 Y188.268 E73.71488
G1 X94.249 Y187.921 E73.80713
G1 X93.602 Y187.505 E73.89944
G1 X93.002 Y187.024 E73.99172
G1 X92.455 Y186.483 E74.08404
G1 X91.967 Y185.888 E74.17638
G1 X91.544 Y185.246 E74.26864
G1 X91.189 Y184.563 E74.36101
G1 X90.908 Y183.848 E74.45320
G1 X90.702 Y183.106 E74.54561
G1 X90.574 Y182.348 E74.63785
G1 X90.525 Y181.499 E74.73990
G1 X90.525 Y41.501 E91.53966
G1 X90.565 Y40.733 E91.63195
G1 X90.684 Y39.973 E91.72426
G1 X90.882 Y39.230 E91.81653
G1 X91.156 Y38.511 E91.90886
G0 F7200.00000 X91.555 Y38.598
G1 F1800.000 X91.902 Y37.935 E91.99866
G1 X92.317 Y37.312 E92.08849
G1 X92.796 Y36.738 E92.17820
G1 X93.333 Y36.217 E92.26799
G1 X93.923 Y35.758 E92.35769
G1 X94.559 Y35.363 E92.44753
G1 X95.233 Y35.039 E92.53727
G1 X95.938 Y34.789 E92.62703
G1 X96.666 Y34.615 E92.71685
G1 X97.408 Y34.520 E92.80662
G1 X97.925 Y34.501 E92.86870
G1 X105.655 Y34.501 E93.79630
G1 X106.402 Y34.541 E93.88607
G1 X107.140 Y34.660 E93.97577
G1 X107.862 Y34.858 E94.06561
G1 X108.558 Y35.131 E94.15533
G1 X109.221 Y35.478 E94.24513
G1 X109.739 Y35.823 E94.31981
G1 X109.823 Y35.758 E94.33256
G1 X110.459 Y35.363 E94.42240
G1 X111.133 Y35.039 E94.51214
G1 X111.838 Y34.789 E94.60190
G1 X112.566 Y34.615 E94.69172
G1 X113.308 Y34.520 E94.78149
G1 X113.825 Y34.501 E94.84357
G1 X125.075 Y34.501 E96.19357
G1 X125.822 Y34.541 E96.28334
G1 X126.560 Y34.660 E96.37304
G1 X127.282 Y34.858 E96.46288
G1 X127.978 Y35.131 E96.55259
G1 X128.641 Y35.478 E96.64239
G1 X129.264 Y35.893 E96.73222
G1 X129.838 Y36.372 E96.82193
G1 X130.359 Y36.909 E96.91172
G1 X130.818 Y37.499 E97.00142
G1 X131.213 Y38.135 E97.09126
G1 X131.537 Y38.809 E97.18100
G1 X131.787 Y39.514 E97.27076
G1 X131.961 Y40.242 E97.36058
G1 X132.056 Y40.984 E97.45035
G1 X132.075 Y41.501 E97.51243
G1 X132.075 Y181.499 E114.31219
G1 X132.035 Y182.246 E114.40196
G1 X131.916 Y182.984 E114.49166
G1 X131.718 Y183.706 E114.58150
G1 X131.445 Y184.402 E114.67122
G1 X131.098 Y185.065 E114.76102
G1 X130.683 Y185.688 E114.85084
G1 X130.204 Y186.262 E114.94056
G1 X129.667 Y186.783 E115.03034
G1 X129.077 Y187.242 E115.12004
G1 X128.441 Y187.637 E115.20989
G1 X127.767 Y187.961 E115.29963
G1 X127.062 Y188.211 E115.38939
G1 X126.334 Y188.385 E115.47921
G1 X125.592 Y188.480 E115.56897
G1 X125.075 Y188.499 E115.63106
G1 X113.825 Y188.499 E116.98106
G1 X113.078 Y188.459 E117.07083
G1 X112.340 Y188.340 E117.16053
G1 X111.618 Y188.142 E117.25037
G1 X110.922 Y187.869 E117.34008
G1 X110.259 Y187.522 E117.42988
G1 X109.741 Y187.177 E117.50457
G1 X109.657 Y187.242 E117.51731
G1 X109.021 Y187.637 E117.60715
G1 X108.347 Y187.961 E117.69689
G1 X107.642 Y188.211 E117.78665
G1 X106.914 Y188.385 E117.87647
G1 X106.172 Y188.480 E117.96624
G1 X105.655 Y188.499 E118.02832
G1 X97.925 Y188.499 E118.95592
G1 X97.178 Y188.459 E119.04569
G1 X96.440 Y188.340 E119.13540
G1 X95.718 Y188.142 E119.22523
G1 X95.022 Y187.869 E119.31495
G1 X94.359 Y187.522 E119.40475
G1 X93.736 Y187.107 E119.49458
G1 X93.162 Y186.628 E119.58429
G1 X92.641 Y186.091 E119.67407
G1 X92.182 Y185.501 E119.76378
G1 X91.787 Y184.865 E119.85362
G1 X91.463 Y184.191 E119.94336
G1 X91.213 Y183.486 E120.03312
G1 X91.039 Y182.758 E120.12294
G1 X90.944 Y182.016 E120.21271
G1 X90.925 Y181.499 E120.27479
G1 X90.925 Y41.501 E137.07455
G1 X90.965 Y40.754 E137.16432
G1 X91.084 Y40.016 E137.25402
G1 X91.282 Y39.294 E137.34386
G1 X91.555 Y38.598 E137.43357
G0 F7200.00000 X91.955 Y38.687
G1 F1800.000 X92.300 Y38.048 E137.52072
G1 X92.714 Y37.451 E137.60790
G1 X93.190 Y36.903 E137.69500
G1 X93.724 Y36.410 E137.78221
G1 X94.309 Y35.980 E137.86934
G1 X94.938 Y35.616 E137.95655
G1 X95.603 Y35.323 E138.04375
G1 X96.296 Y35.105 E138.13093
G1 X97.008 Y34.965 E138.21800
G1 X97.925 Y34.901 E138.32831
G1 X105.655 Y34.901 E139.25591
G1 X106.380 Y34.941 E139.34304
G1 X107.097 Y35.060 E139.43026
G1 X107.796 Y35.258 E139.51744
G1 X108.469 Y35.531 E139.60459
G1 X109.108 Y35.876 E139.69173
G1 X109.705 Y36.290 E139.77891
G1 X109.743 Y36.323 E139.78495
G1 X110.209 Y35.980 E139.85439
G1 X110.838 Y35.616 E139.94159
G1 X111.503 Y35.323 E140.02880
G1 X112.196 Y35.105 E140.11597
G1 X112.908 Y34.965 E140.20305
G1 X113.825 Y34.901 E140.31336
G1 X125.075 Y34.901 E141.66336
G1 X125.800 Y34.941 E141.75049
G1 X126.517 Y35.060 E141.83771
G1 X127.216 Y35.258 E141.92489
G1 X127.889 Y35.531 E142.01204
G1 X128.528 Y35.876 E142.09918
G1 X129.125 Y36.290 E142.18636
G1 X129.673 Y36.766 E142.27347
G1 X130.166 Y37.300 E142.36068
G1 X130.596 Y37.885 E142.44780
G1 X130.960 Y38.514 E142.53501
G1 X131.253 Y39.179 E142.62221
G1 X131.471 Y39.872 E142.70939
G1 X131.611 Y40.584 E142.79647
G1 X131.675 Y41.501 E142.90677
G1 X131.675 Y181.499 E159.70653
G1 X131.635 Y182.224 E159.79367
G1 X131.516 Y182.941 E159.88088
G1 X131.318 Y183.640 E159.96806
G1 X131.045 Y184.313 E160.05522
G1 X130.700 Y184.952 E160.14236
G1 X130.286 Y185.549 E160.22954
G1 X129.810 Y186.097 E160.31664
G1 X129.276 Y186.590 E160.40386
G1 X128.691 Y187.020 E160.49098
G1 X128.062 Y187.384 E160.57819
G1 X127.397 Y187.677 E160.66539
G1 X126.704 Y187.895 E160.75257
G1 X125.992 Y188.035 E160.83964
G1 X125.075 Y188.099 E160.94995
G1 X113.825 Y188.099 E162.29995
G1 X113.100 Y188.059 E162.38708
G1 X112.383 Y187.940 E162.47430
G1 X111.684 Y187.742 E162.56148
G1 X111.011 Y187.469 E162.64863
G1 X110.372 Y187.124 E162.73577
G1 X109.775 Y186.710 E162.82295
G1 X109.737 Y186.677 E162.82899
G1 X109.271 Y187.020 E162.89843
G1 X108.642 Y187.384 E162.98564
G1 X107.977 Y187.677 E163.07284
G1 X107.284 Y187.895 E163.16002
G1 X106.572 Y188.035 E163.24709
G1 X105.655 Y188.099 E163.35740
G1 X97.925 Y188.099 E164.28500
G1 X97.200 Y188.059 E164.37213
G1 X96.483 Y187.940 E164.45935
G1 X95.784 Y187.742 E164.54653
G1 X95.111 Y187.469 E164.63368
G1 X94.472 Y187.124 E164.72082
G1 X93.875 Y186.710 E164.80800
G1 X93.327 Y186.234 E164.89511
G1 X92.834 Y185.700 E164.98232
G1 X92.404 Y185.115 E165.06944
G1 X92.040 Y184.486 E165.15665
G1 X91.747 Y183.821 E165.24385
G1 X91.529 Y183.128 E165.33103
G1 X91.389 Y182.416 E165.41811
G1 X91.325 Y181.499 E165.52842
G1 X91.325 Y41.501 E182.32818
G1 X91.365 Y40.776 E182.41531
G1 X91.484 Y40.059 E182.50253
G1 X91.682 Y39.360 E182.58971
G1 X91.955 Y38.687 E182.67686
G0 F7200.00000 X92.354 Y38.780
G1 F1800.000 X92.699 Y38.166 E182.76137
G1 X93.110 Y37.595 E182.84580
G1 X93.584 Y37.074 E182.93032
G1 X94.114 Y36.610 E183.01485
G1 X94.693 Y36.210 E183.09930
G1 X95.314 Y35.878 E183.18380
G1 X95.968 Y35.618 E183.26825
G1 X96.648 Y35.434 E183.35279
G1 X97.344 Y35.328 E183.43727
G1 X97.925 Y35.301 E183.50706
G1 X105.655 Y35.301 E184.43466
G1 X106.358 Y35.341 E184.51916
G1 X107.052 Y35.460 E184.60366
G1 X107.727 Y35.658 E184.68807
G1 X108.376 Y35.930 E184.77251
G1 X108.990 Y36.275 E184.85703
G1 X109.561 Y36.686 E184.94145
G1 X109.741 Y36.849 E184.97059
G1 X110.014 Y36.610 E185.01413
G1 X110.593 Y36.210 E185.09858
G1 X111.214 Y35.878 E185.18308
G1 X111.868 Y35.618 E185.26754
G1 X112.548 Y35.434 E185.35207
G1 X113.244 Y35.328 E185.43655
G1 X113.825 Y35.301 E185.50635
G1 X125.075 Y35.301 E186.85635
G1 X125.778 Y35.341 E186.94084
G1 X126.472 Y35.460 E187.02534
G1 X127.147 Y35.658 E187.10975
G1 X127.796 Y35.930 E187.19420
G1 X128.410 Y36.275 E187.27871
G1 X128.981 Y36.686 E187.36314
G1 X129.502 Y37.160 E187.44766
G1 X129.966 Y37.690 E187.53219
G1 X130.366 Y38.269 E187.61664
G1 X130.698 Y38.890 E187.70114
G1 X130.958 Y39.544 E187.78559
G1 X131.142 Y40.224 E187.87013
G1 X131.248 Y40.920 E187.95461
G1 X131.275 Y41.501 E188.02440
G1 X131.275 Y181.499 E204.82416
G1 X131.235 Y182.202 E204.90866
G1 X131.116 Y182.896 E204.99316
G1 X130.918 Y183.571 E205.07757
G1 X130.646 Y184.220 E205.16201
G1 X130.301 Y184.834 E205.24653
G1 X129.890 Y185.405 E205.33095
G1 X129.416 Y185.926 E205.41547
G1 X128.886 Y186.390 E205.50000
G1 X128.307 Y186.790 E205.58445
G1 X127.686 Y187.122 E205.66895
G1 X127.032 Y187.382 E205.75341
G1 X126.352 Y187.566 E205.83794
G1 X125.656 Y187.672 E205.92242
G1 X125.075 Y187.699 E205.99222
G1 X113.825 Y187.699 E207.34222
G1 X113.122 Y187.659 E207.42672
G1 X112.428 Y187.540 E207.51121
G1 X111.753 Y187.342 E207.59562
G1 X111.104 Y187.070 E207.68007
G1 X110.490 Y186.725 E207.76458
G1 X109.919 Y186.314 E207.84901
G1 X109.739 Y186.151 E207.87815
G1 X109.466 Y186.390 E207.92169
G1 X108.887 Y186.790 E208.00613
G1 X108.266 Y187.122 E208.09064
G1 X107.612 Y187.382 E208.17509
G1 X106.932 Y187.566 E208.25962
G1 X106.236 Y187.672 E208.34411
G1 X105.655 Y187.699 E208.41390
G1 X97.925 Y187.699 E209.34150
G1 X97.222 Y187.659 E209.42600
G1 X96.528 Y187.540 E209.51049
G1 X95.853 Y187.342 E209.59491
G1 X95.204 Y187.070 E209.67935
G1 X94.590 Y186.725 E209.76387
G1 X94.019 Y186.314 E209.84829
G1 X93.498 Y185.840 E209.93281
G1 X93.034 Y185.310 E210.01734
G1 X92.634 Y184.731 E210.10179
G1 X92.302 Y184.110 E210.18629
G1 X92.042 Y183.456 E210.27075
G1 X91.858 Y182.776 E210.35528
G1 X91.752 Y182.080 E210.43976
G1 X91.725 Y181.499 E210.50956
G1 X91.725 Y41.501 E227.30932
G1 X91.765 Y40.798 E227.39381
G1 X91.884 Y40.104 E227.47831
G1 X92.082 Y39.429 E227.56272
G1 X92.354 Y38.780 E227.64717
G0 F7200.00000 X92.753 Y38.875
G1 F1800.000 X93.097 Y38.287 E227.72891
G1 X93.507 Y37.743 E227.81066
G1 X93.978 Y37.252 E227.89230
G1 X94.503 Y36.818 E227.97404
G1 X95.075 Y36.449 E228.05573
G1 X95.687 Y36.150 E228.13746
G1 X96.329 Y35.925 E228.21910
G1 X96.994 Y35.776 E228.30088
G1 X97.925 Y35.701 E228.41296
G1 X105.655 Y35.701 E229.34056
G1 X106.335 Y35.741 E229.42230
G1 X107.005 Y35.860 E229.50396
G1 X107.657 Y36.057 E229.58569
G1 X108.281 Y36.329 E229.66738
G1 X108.869 Y36.673 E229.74912
G1 X109.413 Y37.083 E229.83087
G1 X109.740 Y37.396 E229.88519
G1 X109.878 Y37.252 E229.90912
G1 X110.403 Y36.818 E229.99086
G1 X110.975 Y36.449 E230.07254
G1 X111.587 Y36.150 E230.15428
G1 X112.229 Y35.925 E230.23591
G1 X112.894 Y35.776 E230.31769
G1 X113.825 Y35.701 E230.42977
G1 X125.075 Y35.701 E231.77977
G1 X125.755 Y35.741 E231.86152
G1 X126.425 Y35.860 E231.94317
G1 X127.077 Y36.057 E232.02491
G1 X127.701 Y36.329 E232.10659
G1 X128.289 Y36.673 E232.18834
G1 X128.833 Y37.083 E232.27008
G1 X129.324 Y37.554 E232.35173
G1 X129.758 Y38.079 E232.43347
G1 X130.127 Y38.651 E232.51515
G1 X130.426 Y39.263 E232.59689
G1 X130.651 Y39.905 E232.67852
G1 X130.800 Y40.570 E232.76030
G1 X130.875 Y41.501 E232.87238
G1 X130.875 Y181.499 E249.67214
G1 X130.835 Y182.179 E249.75389
G1 X130.716 Y182.849 E249.83554
G1 X130.519 Y183.501 E249.91728
G1 X130.247 Y184.125 E249.99896
G1 X129.903 Y184.713 E250.08071
G1 X129.493 Y185.257 E250.16245
G1 X129.022 Y185.748 E250.24410
G1 X128.497 Y186.182 E250.32584
G1 X127.925 Y186.551 E250.40752
G1 X127.313 Y186.850 E250.48926
G1 X126.671 Y187.075 E250.57089
G1 X126.006 Y187.224 E250.65267
G1 X125.075 Y187.299 E250.76475
G1 X113.825 Y187.299 E252.11475
G1 X113.145 Y187.259 E252.19649
