;FLAVOR:UltiGCode
;TIME:17849
;MATERIAL:21917
;MATERIAL2:0
;NOZZLE_DIAMETER:0.4
;Generated with Cura_SteamEngine 2.3.0-BETA

;LAYER_COUNT:35
;LAYER:0
M106 S255.000000
G10
G0 F3600.000000 X88.260 Y8.458 Z0.300
G0 X88.212 Y8.961
;TYPE:SKIRT
G11
G1 F1800.000 X88.260 Y8.458 E0.06063
G1 X88.386 Y7.968 E0.12135
G1 X88.588 Y7.504 E0.18207
G1 X88.860 Y7.078 E0.24273
G1 X89.196 Y6.701 E0.30333
G1 X89.587 Y6.380 E0.36403
G1 X90.024 Y6.126 E0.42469
G1 X90.495 Y5.943 E0.48532
G1 X90.990 Y5.837 E0.54607
G1 X91.322 Y5.810 E0.58604
G1 X91.642 Y5.801 E0.62446
G1 X91.732 Y5.800 E0.63526
G1 X102.644 Y5.800 E1.94470
G1 X102.715 Y5.801 E1.95322
G1 X104.086 Y5.811 E2.11774
G1 X104.780 Y5.808 E2.20102
G1 X105.882 Y5.800 E2.33327
G1 X116.755 Y5.800 E3.63803
G1 X118.971 Y5.808 E3.90395
G1 X120.012 Y5.800 E4.02887
G1 X130.900 Y5.800 E5.33543
G1 X131.598 Y5.810 E5.41920
G1 X132.101 Y5.857 E5.47982
G1 X132.591 Y5.983 E5.54054
G1 X133.055 Y6.185 E5.60126
G1 X133.481 Y6.457 E5.66192
G1 X133.859 Y6.792 E5.72253
G1 X134.179 Y7.183 E5.78316
G1 X134.434 Y7.620 E5.84387
G1 X134.617 Y8.091 E5.90451
G1 X134.724 Y8.585 E5.96516
G1 X134.751 Y8.920 E6.00549
G1 X134.760 Y9.240 E6.04391
G1 X134.761 Y9.330 E6.05471
G1 X134.761 Y47.356 E10.61783
G1 X134.751 Y48.054 E10.70160
G1 X134.747 Y48.054 E10.70208
G1 X134.697 Y48.598 E10.76763
G1 X134.516 Y49.572 E10.88651
G1 X134.507 Y49.617 E10.89202
G1 X134.342 Y50.439 E10.99263
G1 X133.879 Y53.145 E11.32207
G1 X133.495 Y55.840 E11.64873
G1 X133.184 Y58.578 E11.97941
G1 X132.952 Y61.316 E12.30914
G1 X132.798 Y64.040 E12.63655
G1 X132.711 Y68.135 E13.12806
G1 X132.713 Y154.853 E23.53422
G1 X132.753 Y157.650 E23.86989
G1 X132.868 Y160.367 E24.19622
G1 X133.062 Y163.110 E24.52620
G1 X133.332 Y165.822 E24.85325
G1 X133.682 Y168.554 E25.18377
G1 X134.103 Y171.241 E25.51015
G1 X134.644 Y174.135 E25.86344
G1 X134.686 Y174.344 E25.88902
G1 X134.705 Y174.448 E25.90171
G1 X134.707 Y174.460 E25.90317
G1 X134.750 Y174.892 E25.95527
G1 X134.759 Y175.197 E25.99188
G1 X134.760 Y175.265 E26.00004
G1 X134.761 Y175.389 E26.01492
G1 X134.761 Y213.308 E30.56520
G1 X134.751 Y214.033 E30.65221
G1 X134.748 Y214.033 E30.65257
G1 X134.711 Y214.495 E30.70819
G1 X134.592 Y214.986 E30.76882
G1 X134.398 Y215.453 E30.82950
G1 X134.132 Y215.883 E30.89017
G1 X133.802 Y216.266 E30.95084
G1 X133.415 Y216.592 E31.01156
G1 X132.982 Y216.853 E31.07223
G1 X132.514 Y217.043 E31.13284
G1 X132.021 Y217.156 E31.19354
G1 X131.641 Y217.190 E31.23932
G1 X131.321 Y217.199 E31.27773
G1 X131.231 Y217.200 E31.28853
G1 X120.397 Y217.200 E32.58861
G1 X118.181 Y217.192 E32.85454
G1 X117.140 Y217.200 E32.97946
G1 X106.240 Y217.200 E34.28746
G1 X106.169 Y217.199 E34.29598
G1 X104.798 Y217.189 E34.46051
G1 X104.104 Y217.192 E34.54379
G1 X103.002 Y217.200 E34.67603
G1 X92.063 Y217.200 E35.98871
G1 X91.365 Y217.190 E36.07248
G1 X90.862 Y217.143 E36.13310
G1 X90.372 Y217.017 E36.19381
G1 X89.908 Y216.815 E36.25454
G1 X89.482 Y216.543 E36.31519
G1 X89.104 Y216.208 E36.37580
G1 X88.784 Y215.817 E36.43643
G1 X88.529 Y215.380 E36.49715
G1 X88.346 Y214.909 E36.55779
G1 X88.239 Y214.415 E36.61844
G1 X88.217 Y214.076 E36.65921
G1 X88.212 Y214.076 E36.65981
G1 X88.203 Y213.745 E36.69954
G1 X88.202 Y213.658 E36.70998
G1 X88.202 Y175.644 E41.27166
G1 X88.212 Y174.946 E41.35543
G1 X88.232 Y174.639 E41.39235
G1 X88.233 Y174.630 E41.39343
G1 X88.267 Y174.399 E41.42145
G1 X88.447 Y173.429 E41.53984
G1 X88.456 Y173.383 E41.54546
G1 X88.621 Y172.561 E41.64607
G1 X89.084 Y169.855 E41.97551
G1 X89.468 Y167.160 E42.30218
G1 X89.779 Y164.422 E42.63285
G1 X90.011 Y161.684 E42.96259
G1 X90.165 Y158.960 E43.28999
G1 X90.252 Y154.865 E43.78150
G1 X90.250 Y68.147 E54.18766
G1 X90.210 Y65.350 E54.52333
G1 X90.095 Y62.633 E54.84967
G1 X89.901 Y59.890 E55.17965
G1 X89.631 Y57.178 E55.50670
G1 X89.281 Y54.446 E55.83722
G1 X88.860 Y51.759 E56.16359
G1 X88.311 Y48.824 E56.52190
G1 X88.277 Y48.656 E56.54247
G1 X88.258 Y48.552 E56.55515
G1 X88.256 Y48.540 E56.55661
G1 X88.213 Y48.108 E56.60871
G1 X88.204 Y47.803 E56.64533
G1 X88.203 Y47.735 E56.65349
G1 X88.202 Y47.611 E56.66837
G1 X88.202 Y9.626 E61.22657
G1 X88.212 Y8.961 E61.30638
G10
G0 F3600.00000 X90.749 Y8.347
G0 X118.134 Y8.347
G0 X119.006 Y9.628
G0 X120.299 Y9.628
G0 X120.341 Y9.670
G0 X120.271 Y9.600
;TYPE:WALL-INNER
G11
G1 F1800.000 X130.961 Y9.600 E62.58918
G1 X130.961 Y47.943 E67.19034
G1 X130.715 Y48.921 E67.31135
G1 X130.468 Y49.979 E67.44173
G1 X130.238 Y51.042 E67.57224
G1 X130.026 Y52.109 E67.70278
G1 X129.834 Y53.178 E67.83311
G1 X129.659 Y54.253 E67.96381
G1 X129.503 Y55.328 E68.09416
G1 X129.364 Y56.406 E68.22459
G1 X129.244 Y57.488 E68.35523
G1 X129.142 Y58.570 E68.48565
G1 X129.059 Y59.654 E68.61611
G1 X128.995 Y60.740 E68.74665
G1 X128.948 Y61.826 E68.87709
G1 X128.920 Y62.913 E69.00758
G1 X128.911 Y63.997 E69.13766
G1 X128.913 Y159.544 E80.60330
G1 X128.932 Y160.630 E80.73364
G1 X128.968 Y161.717 E80.86415
G1 X129.024 Y162.803 E80.99465
G1 X129.099 Y163.888 E81.12516
G1 X129.191 Y164.971 E81.25559
G1 X129.301 Y166.053 E81.38610
G1 X129.431 Y167.133 E81.51663
G1 X129.578 Y168.211 E81.64719
G1 X129.744 Y169.284 E81.77748
G1 X129.927 Y170.357 E81.90810
G1 X130.131 Y171.425 E82.03858
G1 X130.350 Y172.489 E82.16893
G1 X130.589 Y173.552 E82.29968
G1 X130.961 Y175.055 E82.48548
G1 X130.961 Y213.400 E87.08688
G1 X120.271 Y213.400 E88.36968
G1 X120.271 Y175.057 E92.97084
G1 X120.517 Y174.079 E93.09185
G1 X120.764 Y173.021 E93.22223
G1 X120.995 Y171.958 E93.35277
G1 X121.206 Y170.891 E93.48329
G1 X121.398 Y169.822 E93.61362
G1 X121.574 Y168.748 E93.74422
G1 X121.730 Y167.672 E93.87469
G1 X121.869 Y166.594 E94.00512
G1 X121.989 Y165.512 E94.13575
G1 X122.090 Y164.430 E94.26616
G1 X122.174 Y163.346 E94.39663
G1 X122.238 Y162.260 E94.52717
G1 X122.285 Y161.174 E94.65762
G1 X122.312 Y160.087 E94.78810
G1 X122.321 Y159.003 E94.91818
G1 X122.319 Y63.457 E106.38370
G1 X122.301 Y62.370 E106.51416
G1 X122.264 Y61.282 E106.64479
G1 X122.208 Y60.197 E106.77517
G1 X122.134 Y59.112 E106.90567
G1 X122.041 Y58.029 E107.03611
G1 X121.932 Y56.947 E107.16661
G1 X121.802 Y55.866 E107.29726
G1 X121.654 Y54.789 E107.42772
G1 X121.488 Y53.716 E107.55801
G1 X121.305 Y52.644 E107.68851
G1 X121.102 Y51.575 E107.81908
G1 X120.881 Y50.511 E107.94949
G1 X120.643 Y49.448 E108.08020
G1 X120.271 Y47.945 E108.26601
G1 X120.271 Y9.600 E112.86741
G0 F3600.00000 X119.871 Y9.200
;TYPE:WALL-OUTER
G1 F1800.000 X131.361 Y9.200 E114.24621
G1 X131.361 Y47.992 E118.90125
G1 X131.104 Y49.015 E119.02782
G1 X130.858 Y50.067 E119.15747
G1 X130.630 Y51.123 E119.28711
G1 X130.419 Y52.183 E119.41680
G1 X130.228 Y53.246 E119.54640
G1 X130.054 Y54.314 E119.67625
G1 X129.899 Y55.382 E119.80576
G1 X129.761 Y56.454 E119.93546
G1 X129.642 Y57.529 E120.06525
G1 X129.541 Y58.604 E120.19481
G1 X129.458 Y59.681 E120.32444
G1 X129.394 Y60.760 E120.45414
G1 X129.348 Y61.840 E120.58386
G1 X129.320 Y62.920 E120.71351
G1 X129.311 Y63.999 E120.84299
G1 X129.313 Y159.540 E132.30791
G1 X129.332 Y160.620 E132.43753
G1 X129.368 Y161.700 E132.56720
G1 X129.423 Y162.779 E132.69685
G1 X129.498 Y163.857 E132.82652
G1 X129.589 Y164.934 E132.95622
G1 X129.699 Y166.009 E133.08590
G1 X129.828 Y167.082 E133.21558
G1 X129.974 Y168.153 E133.34529
G1 X130.139 Y169.220 E133.47486
G1 X130.321 Y170.286 E133.60463
G1 X130.523 Y171.347 E133.73423
G1 X130.741 Y172.405 E133.86386
G1 X130.978 Y173.460 E133.99362
G1 X131.361 Y175.007 E134.18486
G1 X131.361 Y213.800 E138.84002
G1 X119.871 Y213.800 E140.21882
G1 X119.871 Y175.008 E144.87386
G1 X120.128 Y173.985 E145.00043
G1 X120.374 Y172.933 E145.13008
G1 X120.603 Y171.877 E145.25975
G1 X120.813 Y170.817 E145.38942
G1 X121.004 Y169.754 E145.51902
G1 X121.179 Y168.687 E145.64877
G1 X121.334 Y167.618 E145.77839
G1 X121.472 Y166.546 E145.90809
G1 X121.591 Y165.471 E146.03788
G1 X121.691 Y164.396 E146.16744
G1 X121.775 Y163.319 E146.29707
G1 X121.839 Y162.240 E146.42678
G1 X121.885 Y161.160 E146.55650
G1 X121.912 Y160.080 E146.68614
G1 X121.921 Y159.001 E146.81562
G1 X121.919 Y63.460 E158.28054
G1 X121.901 Y62.380 E158.41016
G1 X121.864 Y61.299 E158.53996
G1 X121.809 Y60.221 E158.66948
G1 X121.735 Y59.143 E158.79915
G1 X121.643 Y58.066 E158.92886
G1 X121.534 Y56.991 E159.05852
G1 X121.405 Y55.917 E159.18833
G1 X121.258 Y54.847 E159.31793
G1 X121.093 Y53.780 E159.44749
G1 X120.911 Y52.715 E159.57715
G1 X120.710 Y51.653 E159.70685
G1 X120.490 Y50.595 E159.83653
G1 X120.254 Y49.540 E159.96625
G1 X119.871 Y47.993 E160.15750
G1 X119.871 Y9.200 E164.81266
G0 F3600.00000 X120.341 Y9.670
G0 X120.654 Y9.779
;TYPE:SKIN
G1 F1800.000 X130.780 Y19.905 E166.53110
G0 X130.850 Y19.975
G0 F3600.000 X130.780 Y19.340
G1 F1800.000 X121.220 Y9.779 E168.15357
G0 X121.150 Y9.709
G0 F3600.000 X121.785 Y9.779
G1 F1800.000 X130.780 Y18.774 E169.68007
G0 X130.850 Y18.844
G0 F3600.000 X130.780 Y18.208
G1 F1800.000 X122.351 Y9.779 E171.11052
G0 X122.281 Y9.709
G0 F3600.000 X122.917 Y9.779
G1 F1800.000 X130.780 Y17.643 E172.44500
G0 X130.850 Y17.713
G0 F3600.000 X130.780 Y17.077
G1 F1800.000 X123.482 Y9.779 E173.68351
G0 X123.412 Y9.709
G0 F3600.000 X124.048 Y9.779
G1 F1800.000 X130.780 Y16.511 E174.82597
G0 X130.850 Y16.581
G0 F3600.000 X130.780 Y15.945
G1 F1800.000 X124.614 Y9.779 E175.87237
G0 X124.544 Y9.709
G0 F3600.000 X125.179 Y9.779
G1 F1800.000 X130.780 Y15.380 E176.82290
G0 X130.850 Y15.450
G0 F3600.000 X130.780 Y14.814
G1 F1800.000 X125.745 Y9.779 E177.67736
G0 X125.675 Y9.709
G0 F3600.000 X126.311 Y9.779
G1 F1800.000 X130.780 Y14.248 E178.43578
G0 X130.850 Y14.318
G0 F3600.000 X130.780 Y13.683
G1 F1800.000 X126.876 Y9.779 E179.09831
G0 X126.806 Y9.709
G0 F3600.000 X127.442 Y9.779
G1 F1800.000 X130.780 Y13.117 E179.66479
G0 X130.850 Y13.187
G0 F3600.000 X130.780 Y12.551
G1 F1800.000 X128.008 Y9.779 E180.13521
G0 X127.938 Y9.709
G0 F3600.000 X128.573 Y9.779
G1 F1800.000 X130.780 Y11.986 E180.50975
G0 X130.850 Y12.056
G0 F3600.000 X130.780 Y11.420
G1 F1800.000 X129.139 Y9.779 E180.78824
G0 X129.069 Y9.709
G0 F3600.000 X129.705 Y9.779
G1 F1800.000 X130.780 Y10.854 E180.97067
G0 X130.850 Y10.924
G0 F3600.000 X130.780 Y10.289
G1 F1800.000 X130.270 Y9.779 E181.05722
G0 F3600.00000 X120.450 Y10.142
G1 F1800.000 X130.780 Y20.471 E182.81020
G0 X130.850 Y20.541
G0 F3600.000 X130.780 Y21.037
G1 F1800.000 X120.450 Y10.707 E184.56325
G0 X120.380 Y10.637
G0 F3600.000 X120.450 Y11.273
G1 F1800.000 X130.780 Y21.602 E186.31623
G0 X130.850 Y21.672
G0 F3600.000 X130.780 Y22.168
G1 F1800.000 X120.450 Y11.839 E188.06920
G0 X120.380 Y11.769
G0 F3600.000 X120.450 Y12.404
G1 F1800.000 X130.780 Y22.734 E189.82226
G0 X130.850 Y22.804
G0 F3600.000 X130.780 Y23.299
G1 F1800.000 X120.450 Y12.970 E191.57524
G0 X120.380 Y12.900
G0 F3600.000 X120.450 Y13.536
G1 F1800.000 X130.780 Y23.865 E193.32821
G0 X130.850 Y23.935
G0 F3600.000 X130.780 Y24.431
G1 F1800.000 X120.450 Y14.101 E195.08127
G0 X120.380 Y14.031
G0 F3600.000 X120.450 Y14.667
G1 F1800.000 X130.780 Y24.996 E196.83424
G0 X130.850 Y25.066
G0 F3600.000 X130.780 Y25.562
G1 F1800.000 X120.450 Y15.233 E198.58722
G0 X120.380 Y15.163
G0 F3600.000 X120.450 Y15.798
G1 F1800.000 X130.780 Y26.128 E200.34028
G0 X130.850 Y26.198
G0 F3600.000 X130.780 Y26.693
G1 F1800.000 X120.450 Y16.364 E202.09325
G0 X120.380 Y16.294
G0 F3600.000 X120.450 Y16.930
G1 F1800.000 X130.780 Y27.259 E203.84623
G0 X130.850 Y27.329
G0 F3600.000 X130.780 Y27.825
G1 F1800.000 X120.450 Y17.495 E205.59929
G0 X120.380 Y17.425
G0 F3600.000 X120.450 Y18.061
G1 F1800.000 X130.780 Y28.391 E207.35234
G0 X130.850 Y28.461
G0 F3600.000 X130.780 Y28.956
G1 F1800.000 X120.450 Y18.627 E209.10532
G0 X120.380 Y18.557
G0 F3600.000 X120.450 Y19.192
G1 F1800.000 X130.780 Y29.522 E210.85838
G0 X130.850 Y29.592
G0 F3600.000 X130.780 Y30.088
G1 F1800.000 X120.450 Y19.758 E212.61144
G0 X120.380 Y19.688
G0 F3600.000 X120.450 Y20.324
G1 F1800.000 X130.780 Y30.653 E214.36441
G0 X130.850 Y30.723
G0 F3600.000 X130.780 Y31.219
G1 F1800.000 X120.450 Y20.890 E216.11739
G0 X120.380 Y20.820
G0 F3600.000 X120.450 Y21.455
G1 F1800.000 X130.780 Y31.785 E217.87044
G0 X130.850 Y31.855
G0 F3600.000 X130.780 Y32.350
G1 F1800.000 X120.450 Y22.021 E219.62342
G0 X120.380 Y21.951
G0 F3600.000 X120.450 Y22.587
G1 F1800.000 X130.780 Y32.916 E221.37639
G0 X130.850 Y32.986
G0 F3600.000 X130.780 Y33.482
G1 F1800.000 X120.450 Y23.152 E223.12945
G0 X120.380 Y23.082
G0 F3600.000 X120.450 Y23.718
G1 F1800.000 X130.780 Y34.047 E224.88243
G0 X130.850 Y34.117
G0 F3600.000 X130.780 Y34.613
G1 F1800.000 X120.450 Y24.284 E226.63540
G0 X120.380 Y24.214
G0 F3600.000 X120.450 Y24.849
G1 F1800.000 X130.780 Y35.179 E228.38846
G0 X130.850 Y35.249
G0 F3600.000 X130.780 Y35.744
G1 F1800.000 X120.450 Y25.415 E230.14143
G0 X120.380 Y25.345
G0 F3600.000 X120.450 Y25.981
G1 F1800.000 X130.780 Y36.310 E231.89441
G0 X130.850 Y36.380
G0 F3600.000 X130.780 Y36.876
G1 F1800.000 X120.450 Y26.546 E233.64747
G0 X120.380 Y26.476
G0 F3600.000 X120.450 Y27.112
G1 F1800.000 X130.780 Y37.442 E235.40053
G0 X130.850 Y37.512
G0 F3600.000 X130.780 Y38.007
G1 F1800.000 X120.450 Y27.678 E237.15350
G0 X120.380 Y27.608
G0 F3600.000 X120.450 Y28.243
G1 F1800.000 X130.780 Y38.573 E238.90656
G0 X130.850 Y38.643
G0 F3600.000 X130.780 Y39.139
G1 F1800.000 X120.450 Y28.809 E240.65962
G0 X120.380 Y28.739
G0 F3600.000 X120.450 Y29.375
G1 F1800.000 X130.780 Y39.704 E242.41259
G0 X130.850 Y39.774
G0 F3600.000 X130.780 Y40.270
G1 F1800.000 X120.450 Y29.941 E244.16557
G0 X120.380 Y29.871
G0 F3600.000 X120.450 Y30.506
G1 F1800.000 X130.780 Y40.836 E245.91863
G0 X130.850 Y40.906
G0 F3600.000 X130.780 Y41.401
G1 F1800.000 X120.450 Y31.072 E247.67160
G0 X120.380 Y31.002
G0 F3600.000 X120.450 Y31.638
G1 F1800.000 X130.780 Y41.967 E249.42458
G0 X130.850 Y42.037
G0 F3600.000 X130.780 Y42.533
G1 F1800.000 X120.450 Y32.203 E251.17764
G0 X120.380 Y32.133
G0 F3600.000 X120.450 Y32.769
G1 F1800.000 X130.780 Y43.098 E252.93061
G0 X130.850 Y43.168
G0 F3600.000 X130.780 Y43.664
G1 F1800.000 X120.450 Y33.335 E254.68358
G0 X120.380 Y33.265
G0 F3600.000 X120.450 Y33.900
G1 F1800.000 X130.780 Y44.230 E256.43664
G0 X130.850 Y44.300
G0 F3600.000 X130.780 Y44.795
G1 F1800.000 X120.450 Y34.466 E258.18962
G0 X120.380 Y34.396
G0 F3600.000 X120.450 Y35.032
G1 F1800.000 X130.780 Y45.361 E259.94259
G0 X130.850 Y45.431
G0 F3600.000 X130.780 Y45.927
G1 F1800.000 X120.450 Y35.597 E261.69565
G0 X120.380 Y35.527
G0 F3600.000 X120.450 Y36.163
G1 F1800.000 X130.780 Y46.492 E263.44862
G0 X130.850 Y46.562
G0 F3600.000 X130.780 Y47.058
G1 F1800.000 X120.450 Y36.729 E265.20160
G0 X120.380 Y36.659
G0 F3600.000 X120.450 Y37.294
G1 F1800.000 X130.780 Y47.624 E266.95466
G0 X130.850 Y47.694
G0 F3600.000 X130.726 Y48.136
G1 F1800.000 X120.450 Y37.860 E268.69855
G0 X120.380 Y37.790
G0 F3600.000 X120.450 Y38.426
G1 F1800.000 X130.613 Y48.588 E270.42319
G0 X130.683 Y48.658
G0 F3600.000 X130.501 Y49.042
G1 F1800.000 X120.450 Y38.991 E272.12890
G0 X120.380 Y38.921
G0 F3600.000 X120.450 Y39.557
G1 F1800.000 X130.394 Y49.501 E273.81645
G0 X130.464 Y49.571
G0 F3600.000 X130.287 Y49.959
G1 F1800.000 X120.450 Y40.123 E275.48576
G0 X120.380 Y40.053
G0 F3600.000 X120.450 Y40.689
G1 F1800.000 X130.186 Y50.425 E277.13801
G0 X130.256 Y50.495
G0 F3600.000 X130.085 Y50.889
G1 F1800.000 X120.450 Y41.254 E278.77313
G0 X120.380 Y41.184
G0 F3600.000 X120.450 Y41.820
G1 F1800.000 X129.990 Y51.359 E280.39203
G0 X130.060 Y51.429
G0 F3600.000 X129.896 Y51.831
G1 F1800.000 X120.450 Y42.386 E281.99499
G0 X120.380 Y42.316
G0 F3600.000 X120.450 Y42.951
G1 F1800.000 X129.807 Y52.308 E283.58292
G0 X129.877 Y52.378
G0 F3600.000 X129.721 Y52.788
G1 F1800.000 X120.450 Y43.517 E285.15627
G0 X120.380 Y43.447
G0 F3600.000 X120.450 Y44.083
G1 F1800.000 X129.636 Y53.269 E286.71518
G0 X129.706 Y53.339
G0 F3600.000 X129.557 Y53.755
G1 F1800.000 X120.450 Y44.648 E288.26069
G0 X120.380 Y44.578
G0 F3600.000 X120.450 Y45.214
G1 F1800.000 X129.478 Y54.242 E289.79279
G0 X129.548 Y54.312
G0 F3600.000 X129.407 Y54.737
G1 F1800.000 X120.450 Y45.780 E291.31285
G0 X120.380 Y45.710
G0 F3600.000 X120.450 Y46.345
G1 F1800.000 X129.336 Y55.231 E292.82085
G0 X129.406 Y55.301
